!!!OTL: 630. Sommerlied.
!!!COM: C. M. v. Weber
!!!ODT: 1818
!!!ARE: Europa, Mitteleuropa, Deutschland, Pfalz
!!!SCT: B0630
!!!TXL: @@DE
!!!YEM: Copyright 1995, estate of Helmut Schaffrath.
**kern	**text
*ICvox	*
*Ivox	*
*clefG2	*
*M2/4	*
*k[]	*
*C:	*
=1	=1
!LO:TX:a:t=Sehr heiter.	!
{4cc	Tra-
4ee	-ri-
=2	=2
4dd	-ra,
8r}	.
{8g	der
=3	=3
8a	Som-
8g	-mer
8a	der
8b/	iſt
=4	=4
4cc	da!
8r}	.
{8g	Wir
=5	=5
8g	woll'n
8ee	hin-
8ee	-aus
8dd	in
=6	=6
(16ddL	Gar-
16cc	.
16b	.
16aJ)	.
8g}	-ten
{8g	und
=7	=7
8a	woll'n
8b	des
8cc	Som-
8dd	-mers
=8	=8
4g	war-
8cc	-ten:
8r}	.
=9||	=9||
{4cc	ja,
4ee	ja,
=10	=10
4.gg}	ja,
{16eeL	der
16ccJ	.
=11	=11
16gL	Som-
16eJ	.
16gL	-mer
16ccJ	.
8ee	der
8dd	iſt
=12	=12
4cc	da!
4r}	.
==	==
!!!AGN: Kinder -, Jahreszeiten - Lied, Sommer
!!!GTL: Kinderlieder
!!!ONB: ESAC (Essen Associative Code) Database: BOEHME
!!!AMT: simple duple
!!!AIN: vox
!!!EED: Helmut Schaffrath
!!!EEV: 1.0
!!@@COMMENT:"Pfälʒiſches Volkslied der Kinder beim Winteraustreiben und Sommereinholen ʒu Lätare, nach
!!uraltem germaniſchen Gebrauch. Ʒuerſt gedruckt im deutſchem Muſeum 1778. (Mehr darüber Liederderhort III. S. 331.)"
!!@@END:
!!!URL-scan: https://archive.org/details/BoehmeVtLieder1895/page/n495/mode/2up
!!!ENC: Anna Maria Matuszewska
!!!EEV: 2024/12/07
*-	*-
